; generated by Slic3r 1.1.7 on 2014-08-05 at 19:45:06

; perimeters extrusion width = 0.40mm
; infill extrusion width = 0.42mm
; solid infill extrusion width = 0.42mm
; top infill extrusion width = 0.42mm

G21 ; set units to millimeters
M107
M104 S200 ; set temperature
G28 ; home all pillars
G29 ; z probe
G1 X0 Y0 Z0 ; plug nozzle to stop ooze
M109 S200 ; wait for temperature to be reached
G90 ; use absolute coordinates
G92 E0
M82 ; use absolute distances for extrusion
G1 F1800.000 E-3.00000
G92 E0
G1 Z0.400 F7800.000
G1 X0.000 Y35.164 F7800.000
G1 E3.00000 F1800.000
G1 X-93.000 Y35.164 E14.04516 F1080.000
G1 X-95.275 Y34.767 E14.31939
G1 X-97.280 Y33.623 E14.59361
G1 X-98.780 Y31.867 E14.86784
G1 X-99.595 Y29.707 E15.14206
G1 X-99.714 Y28.450 E15.29203
G1 X-99.714 Y-28.450 E22.04977
G1 X-99.317 Y-30.725 E22.32399
G1 X-98.173 Y-32.730 E22.59822
G1 X-96.417 Y-34.230 E22.87244
G1 X-94.257 Y-35.045 E23.14667
G1 X-93.000 Y-35.164 E23.29663
G1 X93.000 Y-35.164 E45.38695
G1 X95.275 Y-34.767 E45.66118
G1 X97.280 Y-33.623 E45.93540 F1080.000
G1 X98.780 Y-31.867 E46.20963
G1 X99.595 Y-29.707 E46.48385
G1 X99.714 Y-28.450 E46.63382
G1 X99.714 Y28.450 E53.39156
G1 X99.317 Y30.725 E53.66578
G1 X98.173 Y32.730 E53.94001
G1 X96.417 Y34.230 E54.21423
G1 X94.257 Y35.045 E54.48846
G1 X93.000 Y35.164 E54.63842
G1 X0.060 Y35.164 E65.67646
G1 F1800.000 E62.67646
G92 E0
G1 X-90.827 Y-21.396 F7800.000
G1 E3.00000 F1800.000
G1 X-90.827 Y-25.504 E3.48788 F756.000
G1 X-86.920 Y-26.773 E3.97576
G1 X-84.506 Y-23.450 E4.46364
G1 X-86.920 Y-20.127 E4.95152
G1 X-90.770 Y-21.377 E5.43228
G1 X-91.225 Y-21.438 F7800.000
G1 X-89.971 Y-12.896 F7800.000
G1 X-88.989 Y-12.633 E5.55301 F756.000
G1 X-87.011 Y-12.633 E5.78784
G1 X-86.029 Y-12.896 E5.90857
G1 X-85.766 Y-11.914 E6.02930
G1 X-84.778 Y-10.202 E6.26413
G1 X-84.059 Y-9.483 E6.38487
G1 X-84.778 Y-8.764 E6.50560
G1 X-85.766 Y-7.052 E6.74043
G1 X-86.029 Y-6.070 E6.86116
G1 X-87.011 Y-6.333 E6.98189
G1 X-88.989 Y-6.333 E7.21672
G1 X-89.971 Y-6.070 E7.33745
G1 X-90.234 Y-7.052 E7.45818
G1 X-91.222 Y-8.764 E7.69301
G1 X-91.941 Y-9.483 E7.81375
G1 X-91.222 Y-10.202 E7.93448
G1 X-90.234 Y-11.914 E8.16931
G1 X-89.986 Y-12.838 E8.28292
G1 X-89.867 Y-13.283 F7800.000
G1 F1800.000 E5.28292
G92 E0
G1 X-89.971 Y6.070 F7800.000
G1 E3.00000 F1800.000
G1 X-88.989 Y6.333 E3.12073 F756.000
G1 X-87.011 Y6.333 E3.35556
G1 X-86.029 Y6.070 E3.47629
G1 X-85.766 Y7.052 E3.59702
G1 X-84.778 Y8.764 E3.83185
G1 X-84.059 Y9.483 E3.95259
G1 X-84.778 Y10.202 E4.07332
G1 X-85.766 Y11.914 E4.30815
G1 X-86.029 Y12.896 E4.42888
G1 X-87.011 Y12.633 E4.54961
G1 X-88.989 Y12.633 E4.78444
G1 X-89.971 Y12.896 E4.90517
G1 X-90.234 Y11.914 E5.02590
G1 X-91.222 Y10.202 E5.26074
G1 X-91.941 Y9.483 E5.38147
G1 X-91.222 Y8.764 E5.50220
G1 X-90.234 Y7.052 E5.73703
G1 X-89.986 Y6.128 E5.85064
G1 X-89.867 Y5.684 F7800.000
G1 F1800.000 E2.85064
G92 E0
G1 X-11.941 Y9.483 F7800.000
G1 E3.00000 F1800.000
G1 X-11.222 Y8.764 E3.12073 F756.000
G1 X-10.234 Y7.052 E3.35556
G1 X-9.971 Y6.070 E3.47629
G1 X-8.989 Y6.333 E3.59702
G1 X-7.011 Y6.333 E3.83185
G1 X-6.029 Y6.070 E3.95258
G1 X-5.766 Y7.052 E4.07331
G1 X-4.778 Y8.764 E4.30815
G1 X-4.059 Y9.483 E4.42888
G1 X-4.778 Y10.202 E4.54960
G1 X-5.766 Y11.914 E4.78444
G1 X-6.029 Y12.896 E4.90517
G1 X-7.011 Y12.633 E5.02590
G1 X-8.989 Y12.633 E5.26073
G1 X-9.971 Y12.896 E5.38146
G1 X-10.234 Y11.914 E5.50219
G1 X-11.222 Y10.202 E5.73702
G1 X-11.899 Y9.526 E5.85062
G1 X-12.224 Y9.200 F7800.000
G1 X-9.971 Y-6.070 F7800.000
G1 X-10.234 Y-7.052 E5.97135 F756.000
G1 X-11.222 Y-8.764 E6.20619
G1 X-11.941 Y-9.483 E6.32692
G1 X-11.222 Y-10.202 E6.44765
G1 X-10.234 Y-11.914 E6.68248
G1 X-9.971 Y-12.896 E6.80321
G1 X-8.989 Y-12.633 E6.92394
G1 X-7.011 Y-12.633 E7.15877
G1 X-6.029 Y-12.896 E7.27950
G1 X-5.766 Y-11.914 E7.40023
G1 X-4.778 Y-10.202 E7.63506
G1 X-4.059 Y-9.483 E7.75579
G1 X-4.778 Y-8.764 E7.87652
G1 X-5.766 Y-7.052 E8.11135
G1 X-6.029 Y-6.070 E8.23208
G1 X-7.011 Y-6.333 E8.35281
G1 X-8.989 Y-6.333 E8.58764
G1 X-9.913 Y-6.086 E8.70125
G1 X-10.357 Y-5.967 F7800.000
G1 X-42.039 Y-9.483 F7800.000
G1 X-43.635 Y-7.887 E8.96928 F1080.000
G1 X-44.435 Y-6.501 E9.15945
G1 X-45.019 Y-4.321 E9.42748
G1 X-47.199 Y-4.905 E9.69551
G1 X-48.801 Y-4.905 E9.88568
G1 X-50.981 Y-4.321 E10.15371
G1 X-51.565 Y-6.501 E10.42174
G1 X-52.365 Y-7.887 E10.61191
G1 X-53.961 Y-9.483 E10.87994
G1 X-52.365 Y-11.079 E11.14797
G1 X-51.565 Y-12.466 E11.33814
G1 X-50.981 Y-14.646 E11.60617
G1 X-48.801 Y-14.062 E11.87420
G1 X-47.199 Y-14.062 E12.06437
G1 X-45.019 Y-14.646 E12.33240
G1 X-44.435 Y-12.466 E12.60043
G1 X-43.635 Y-11.079 E12.79060
G1 X-42.081 Y-9.526 E13.05150
G1 X-43.049 Y-9.483 F7800.000
G1 X-44.206 Y-8.326 E13.24588 F1080.000
G1 X-45.101 Y-6.776 E13.45839
G1 X-45.524 Y-5.196 E13.65277
G1 X-47.105 Y-5.619 E13.84715
G1 X-48.895 Y-5.619 E14.05965
G1 X-50.476 Y-5.196 E14.25403
G1 X-50.899 Y-6.776 E14.44841
G1 X-51.794 Y-8.326 E14.66091
G1 X-52.951 Y-9.483 E14.85529
G1 X-51.794 Y-10.641 E15.04967
G1 X-50.899 Y-12.190 E15.26217
G1 X-50.476 Y-13.771 E15.45655
G1 X-48.895 Y-13.347 E15.65093
G1 X-47.105 Y-13.347 E15.86343
G1 X-45.524 Y-13.771 E16.05781
G1 X-45.101 Y-12.190 E16.25219
G1 X-44.206 Y-10.641 E16.46469
G1 X-43.091 Y-9.526 E16.65195
G1 X-44.059 Y-9.483 F7800.000
G1 X-44.778 Y-8.764 E16.77268 F756.000
G1 X-45.766 Y-7.052 E17.00751
G1 X-46.029 Y-6.070 E17.12824
G1 X-47.011 Y-6.333 E17.24897
G1 X-48.989 Y-6.333 E17.48380
G1 X-49.971 Y-6.070 E17.60453
G1 X-50.234 Y-7.052 E17.72526
G1 X-51.222 Y-8.765 E17.96009
G1 X-51.941 Y-9.483 E18.08082
G1 X-51.222 Y-10.202 E18.20155
G1 X-50.234 Y-11.914 E18.43639
G1 X-49.971 Y-12.896 E18.55712
G1 X-48.989 Y-12.633 E18.67785
G1 X-47.011 Y-12.633 E18.91268
G1 X-46.029 Y-12.896 E19.03341
G1 X-45.766 Y-11.915 E19.15413
G1 X-44.778 Y-10.202 E19.38897
G1 X-44.101 Y-9.526 E19.50257
G1 X-43.776 Y-9.200 F7800.000
G1 X-45.019 Y4.321 F7800.000
G1 X-44.435 Y6.501 E19.77060 F1080.000
G1 X-43.635 Y7.887 E19.96077
G1 X-42.039 Y9.483 E20.22881
G1 X-43.635 Y11.079 E20.49684
G1 X-44.435 Y12.466 E20.68701
G1 X-45.019 Y14.646 E20.95504
G1 X-47.199 Y14.062 E21.22307
G1 X-48.801 Y14.062 E21.41324
G1 X-50.981 Y14.646 E21.68127
G1 X-51.565 Y12.466 E21.94930
G1 X-52.365 Y11.079 E22.13947
G1 X-53.961 Y9.483 E22.40750
G1 X-52.365 Y7.887 E22.67553
G1 X-51.565 Y6.501 E22.86570
G1 X-50.981 Y4.321 E23.13373
G1 X-48.801 Y4.905 E23.40176
G1 X-47.199 Y4.905 E23.59193
G1 X-45.077 Y4.336 E23.85283
G1 X-45.524 Y5.196 F7800.000
G1 X-45.101 Y6.776 E24.04721 F1080.000
G1 X-44.206 Y8.326 E24.25971
G1 X-43.049 Y9.483 E24.45409
G1 X-44.206 Y10.641 E24.64848
G1 X-45.101 Y12.190 E24.86098
G1 X-45.524 Y13.771 E25.05536
G1 X-47.105 Y13.347 E25.24974
G1 X-48.895 Y13.347 E25.46224
G1 X-50.476 Y13.771 E25.65662
G1 X-50.899 Y12.190 E25.85100
G1 X-51.794 Y10.641 E26.06350
G1 X-52.951 Y9.483 E26.25788
G1 X-51.794 Y8.326 E26.45226
G1 X-50.899 Y6.776 E26.66476
G1 X-50.476 Y5.196 E26.85914
G1 X-48.895 Y5.619 E27.05352
G1 X-47.105 Y5.619 E27.26602
G1 X-45.582 Y5.211 E27.45327
G1 X-46.029 Y6.070 F7800.000
G1 X-45.766 Y7.052 E27.57400 F756.000
G1 X-44.778 Y8.764 E27.80884
G1 X-44.059 Y9.483 E27.92957
G1 X-44.778 Y10.202 E28.05030
G1 X-45.766 Y11.915 E28.28513
G1 X-46.029 Y12.896 E28.40586
G1 X-47.011 Y12.633 E28.52659
G1 X-48.989 Y12.633 E28.76142
G1 X-49.971 Y12.896 E28.88215
G1 X-50.234 Y11.914 E29.00288
G1 X-51.222 Y10.202 E29.23772
G1 X-51.941 Y9.483 E29.35845
G1 X-51.222 Y8.765 E29.47917
G1 X-50.234 Y7.052 E29.71401
G1 X-49.971 Y6.070 E29.83474
G1 X-48.989 Y6.333 E29.95547
G1 X-47.011 Y6.333 E30.19030
G1 X-46.087 Y6.086 E30.30390
G1 X-45.643 Y5.967 F7800.000
G1 X-13.961 Y9.483 F7800.000
G1 X-12.365 Y11.079 E30.57194 F1080.000
G1 X-11.565 Y12.466 E30.76210
G1 X-10.981 Y14.646 E31.03013
G1 X-8.801 Y14.062 E31.29816
G1 X-7.199 Y14.062 E31.48833
G1 X-4.828 Y14.697 E31.77987
G1 X-4.828 Y26.622 E33.19611
G1 X-25.046 Y26.622 E35.59729
G1 X-26.696 Y24.790 E35.89011
G1 X-32.081 Y20.877 E36.68061
G1 X-38.161 Y18.170 E37.47112
G1 X-44.672 Y16.786 E38.26162
G1 X-51.328 Y16.786 E39.05214
G1 X-57.839 Y18.170 E39.84264
G1 X-63.919 Y20.877 E40.63314
G1 X-69.304 Y24.789 E41.42364
G1 X-70.954 Y26.622 E41.71646
G1 X-91.172 Y26.622 E44.11764
G1 X-91.172 Y14.697 E45.53389
G1 X-88.801 Y14.062 E45.82542
G1 X-87.199 Y14.062 E46.01559
G1 X-85.019 Y14.646 E46.28362
G1 X-84.435 Y12.466 E46.55165
G1 X-83.635 Y11.079 E46.74181
G1 X-82.039 Y9.483 E47.00985
G1 X-83.635 Y7.887 E47.27789
G1 X-84.435 Y6.501 E47.46806
G1 X-85.019 Y4.321 E47.73608
G1 X-87.199 Y4.905 E48.00411
G1 X-88.801 Y4.905 E48.19428
G1 X-91.172 Y4.270 E48.48581
G1 X-91.172 Y-4.270 E49.49999
G1 X-88.801 Y-4.905 E49.79153
G1 X-87.199 Y-4.905 E49.98169
G1 X-85.019 Y-4.321 E50.24972
G1 X-84.435 Y-6.501 E50.51775
G1 X-83.635 Y-7.887 E50.70792
G1 X-82.039 Y-9.483 E50.97595
G1 X-83.635 Y-11.079 E51.24399
G1 X-84.435 Y-12.466 E51.43416
G1 X-85.019 Y-14.646 E51.70219
G1 X-87.199 Y-14.062 E51.97022
G1 X-88.801 Y-14.062 E52.16038
G1 X-91.172 Y-14.697 E52.45192
G1 X-91.172 Y-20.006 E53.08247
G1 X-86.375 Y-18.448 E53.68152
G1 X-82.740 Y-23.450 E54.41589
G1 X-85.044 Y-26.622 E54.88150
G1 X-70.954 Y-26.622 E56.55498
G1 X-69.304 Y-24.789 E56.84780
G1 X-63.919 Y-20.877 E57.63830
G1 X-57.839 Y-18.170 E58.42880
G1 X-51.328 Y-16.786 E59.21930
G1 X-44.672 Y-16.786 E60.00982
G1 X-38.161 Y-18.170 E60.80032
G1 X-32.081 Y-20.877 E61.59082
G1 X-26.696 Y-24.789 E62.38133
G1 X-25.046 Y-26.622 E62.67414
G1 X-4.828 Y-26.622 E65.07532
G1 X-4.828 Y-14.697 E66.49157
G1 X-7.199 Y-14.062 E66.78311
G1 X-8.801 Y-14.062 E66.97327
G1 X-10.981 Y-14.646 E67.24130
G1 X-11.565 Y-12.466 E67.50933
G1 X-12.365 Y-11.079 E67.69950
G1 X-13.961 Y-9.483 E67.96753
G1 X-12.365 Y-7.887 E68.23557
G1 X-11.565 Y-6.501 E68.42573
G1 X-10.981 Y-4.321 E68.69376
G1 X-8.801 Y-4.905 E68.96179
G1 X-7.199 Y-4.905 E69.15196
G1 X-4.828 Y-4.270 E69.44349
G1 X-4.828 Y4.270 E70.45767
G1 X-7.199 Y4.905 E70.74921
G1 X-8.801 Y4.905 E70.93937
G1 X-10.981 Y4.321 E71.20740
G1 X-11.565 Y6.501 E71.47543
G1 X-12.365 Y7.887 E71.66560
G1 X-13.919 Y9.441 E71.92651
G1 X-12.951 Y9.483 F7800.000
G1 X-11.794 Y10.641 E72.12089 F1080.000
G1 X-10.899 Y12.190 E72.33339
G1 X-10.476 Y13.771 E72.52777
G1 X-8.895 Y13.347 E72.72215
G1 X-7.105 Y13.347 E72.93465
G1 X-5.524 Y13.771 E73.12903
G1 X-5.101 Y12.190 E73.32341
G1 X-4.538 Y11.215 E73.45720
G1 X-4.114 Y11.328 E73.50926
G1 X-4.114 Y27.336 E75.41044
G1 X-25.364 Y27.336 E77.93420
G1 X-27.176 Y25.323 E78.25586
G1 X-32.440 Y21.499 E79.02854
G1 X-38.383 Y18.853 E79.80122
G1 X-44.747 Y17.500 E80.57389
G1 X-51.253 Y17.500 E81.34657
G1 X-57.617 Y18.853 E82.11924
G1 X-63.560 Y21.499 E82.89192
G1 X-68.824 Y25.323 E83.66460
G1 X-70.636 Y27.336 E83.98626
G1 X-91.886 Y27.336 E86.51002
G1 X-91.886 Y11.328 E88.41119
G1 X-91.462 Y11.215 E88.46325
G1 X-90.899 Y12.190 E88.59704
G1 X-90.476 Y13.771 E88.79142
G1 X-88.895 Y13.347 E88.98580
G1 X-87.105 Y13.347 E89.19830
G1 X-85.524 Y13.771 E89.39268
G1 X-85.101 Y12.190 E89.58706
G1 X-84.206 Y10.641 E89.79956
G1 X-83.049 Y9.483 E89.99394
G1 X-84.206 Y8.326 E90.18832
G1 X-85.101 Y6.776 E90.40083
G1 X-85.524 Y5.196 E90.59521
G1 X-87.105 Y5.619 E90.78958
G1 X-88.895 Y5.619 E91.00208
G1 X-90.476 Y5.196 E91.19646
G1 X-90.899 Y6.776 E91.39084
G1 X-91.462 Y7.752 E91.52463
G1 X-91.886 Y7.639 E91.57669
G1 X-91.886 Y-7.639 E93.39108
G1 X-91.462 Y-7.752 E93.44315
G1 X-90.899 Y-6.776 E93.57693
G1 X-90.476 Y-5.196 E93.77131
G1 X-88.895 Y-5.619 E93.96569
G1 X-87.105 Y-5.619 E94.17819
G1 X-85.524 Y-5.196 E94.37257
G1 X-85.101 Y-6.776 E94.56695
G1 X-84.206 Y-8.326 E94.77945
G1 X-83.049 Y-9.483 E94.97383
G1 X-84.206 Y-10.641 E95.16822
G1 X-85.101 Y-12.190 E95.38072
G1 X-85.524 Y-13.771 E95.57510
G1 X-87.105 Y-13.347 E95.76948
G1 X-88.895 Y-13.347 E95.98198
G1 X-90.476 Y-13.771 E96.17636
G1 X-90.899 Y-12.190 E96.37073
G1 X-91.462 Y-11.215 E96.50452
G1 X-91.886 Y-11.328 E96.55659
G1 X-91.886 Y-20.989 E97.70399
G1 X-86.647 Y-19.287 E98.35815
G1 X-83.623 Y-23.450 E98.96928
G1 X-86.446 Y-27.336 E99.53972
G1 X-70.636 Y-27.336 E101.41743
G1 X-68.824 Y-25.323 E101.73910
G1 X-63.560 Y-21.499 E102.51177
G1 X-57.617 Y-18.853 E103.28444
G1 X-51.253 Y-17.500 E104.05711
G1 X-44.747 Y-17.500 E104.82980
G1 X-38.383 Y-18.853 E105.60247
G1 X-32.440 Y-21.499 E106.37515
G1 X-27.176 Y-25.323 E107.14782
G1 X-25.364 Y-27.336 E107.46949
G1 X-4.114 Y-27.336 E109.99325
G1 X-4.114 Y-11.328 E111.89442
G1 X-4.538 Y-11.215 E111.94649
G1 X-5.101 Y-12.190 E112.08028
G1 X-5.524 Y-13.771 E112.27466
G1 X-7.105 Y-13.347 E112.46904
G1 X-8.895 Y-13.347 E112.68153
G1 X-10.476 Y-13.771 E112.87592
G1 X-10.899 Y-12.190 E113.07030
G1 X-11.794 Y-10.641 E113.28279
G1 X-12.951 Y-9.483 E113.47718
G1 X-11.794 Y-8.326 E113.67156
G1 X-10.899 Y-6.776 E113.88406
G1 X-10.476 Y-5.196 E114.07844
G1 X-8.895 Y-5.619 E114.27282
G1 X-7.105 Y-5.619 E114.48532
G1 X-5.524 Y-5.196 E114.67970
G1 X-5.101 Y-6.776 E114.87408
G1 X-4.538 Y-7.752 E115.00787
G1 X-4.114 Y-7.639 E115.05993
G1 X-4.114 Y7.639 E116.87433
G1 X-4.538 Y7.752 E116.92640
G1 X-5.101 Y6.776 E117.06019
G1 X-5.524 Y5.196 E117.25457
G1 X-7.105 Y5.619 E117.44895
G1 X-8.895 Y5.619 E117.66145
G1 X-10.476 Y5.196 E117.85583
G1 X-10.899 Y6.776 E118.05021
G1 X-11.794 Y8.326 E118.26271
G1 X-12.909 Y9.441 E118.44996
G1 F1800.000 E115.44996
G92 E0
G1 X-92.000 Y-19.373 F7800.000
G1 X-90.563 Y-20.680 F7800.000
G1 X-88.427 Y-23.760 F7800.000
G1 X-87.516 Y-27.211 F7800.000
G1 X-88.984 Y-26.854 F7800.000
G1 E3.00000 F1800.000
G1 X-91.886 Y-25.911 E3.36243 F1080.000
G1 X-91.886 Y-27.336 E3.53167
G1 X-89.060 Y-27.336 E3.86730
G1 X-88.993 Y-26.913 E3.91813
G1 X-92.600 Y-28.050 F7800.000
G1 X-70.318 Y-28.050 E6.56447 F756.000
G1 X-68.343 Y-25.857 E6.91498
G1 X-63.201 Y-22.121 E7.66983
G1 X-57.395 Y-19.536 E8.42467
G1 X-51.178 Y-18.214 E9.17952
G1 X-44.822 Y-18.214 E9.93437
G1 X-38.605 Y-19.536 E10.68921
G1 X-32.799 Y-22.121 E11.44406
G1 X-27.657 Y-25.857 E12.19891
G1 X-25.682 Y-28.050 E12.54942
G1 X-3.400 Y-28.050 E15.19576
G1 X-3.400 Y28.050 E21.85849
G1 X-25.682 Y28.050 E24.50483
G1 X-27.657 Y25.857 E24.85534
G1 X-32.799 Y22.121 E25.61019
G1 X-38.605 Y19.536 E26.36503
G1 X-44.822 Y18.214 E27.11988
G1 X-51.178 Y18.214 E27.87473
G1 X-57.395 Y19.536 E28.62958
G1 X-63.201 Y22.121 E29.38442
G1 X-68.343 Y25.857 E30.13927
G1 X-70.318 Y28.050 E30.48978
G1 X-92.600 Y28.050 E33.13612
G1 X-92.600 Y-27.990 E39.79172
G1 X-92.254 Y-27.850 F7800.000
G1 X-90.674 Y-15.373 F7800.000
G1 X-90.272 Y-14.971 E39.85921 F1080.000
G1 X-88.891 Y-14.601 E40.02904
G1 X-90.674 Y-16.384 E40.32852
G1 X-90.674 Y-17.395 E40.44861
G1 X-87.838 Y-14.559 E40.92493
G1 X-86.919 Y-14.652 E41.03458
G1 X-90.674 Y-18.406 E41.66518
G1 X-90.531 Y-19.275 E41.76968
G1 X-86.122 Y-14.866 E42.51022
G1 X-85.324 Y-15.079 E42.60827
G1 X-89.033 Y-18.788 E43.23118
G1 X-87.535 Y-18.301 E43.41823
G1 X-52.671 Y16.563 E49.27395
G1 X-51.838 Y16.385 E49.37520
G1 X-86.143 Y-17.920 E55.13709
G1 X-85.717 Y-18.505 E55.22306
G1 X-50.924 Y16.288 E61.06699
G1 X-49.912 Y16.288 E61.18708
G1 X-85.292 Y-19.091 E67.12937
G1 X-84.866 Y-19.677 E67.21535
G1 X-51.844 Y13.345 E72.76169
G1 X-52.722 Y11.456 F7800.000
G1 X-84.441 Y-20.262 E78.08907 F1080.000
G1 X-84.015 Y-20.848 E78.17505
G1 X-54.174 Y8.993 E83.18709
G1 X-53.669 Y8.487 E83.27201
G1 X-83.590 Y-21.434 E88.29750
G1 X-83.164 Y-22.019 E88.38348
G1 X-53.163 Y7.982 E93.42242
G1 X-52.686 Y7.448 E93.50747
G1 X-82.739 Y-22.605 E98.55510
G1 X-82.313 Y-23.191 E98.64108
G1 X-52.316 Y6.807 E103.67940
G1 X-51.981 Y6.131 E103.76901
G1 X-83.622 Y-25.510 E109.08340
G1 X-83.224 Y-26.124 E109.17023
G1 X-51.767 Y5.333 E114.45376
G1 X-51.553 Y4.536 E114.55181
G1 X-82.213 Y-26.124 E119.70139
G1 X-81.202 Y-26.124 E119.82148
G1 X-51.340 Y3.738 E124.83712
G1 X-49.998 Y4.069 E125.00123
G1 X-80.191 Y-26.124 E130.07239
G1 X-79.180 Y-26.124 E130.19247
G1 X-48.648 Y4.407 E135.32047
G1 X-47.637 Y4.407 E135.44056
G1 X-78.169 Y-26.124 E140.56855
G1 X-77.157 Y-26.124 E140.68864
G1 X-46.761 Y4.272 E145.79397
G1 X-45.964 Y4.059 E145.89202
G1 X-76.146 Y-26.124 E150.96145
G1 X-75.135 Y-26.124 E151.08154
G1 X-45.166 Y3.845 E156.11508
G1 X-51.934 Y-5.956 F7800.000
