; generated by Slic3r 1.1.7 on 2014-08-06 at 11:20:32

; perimeters extrusion width = 0.40mm
; infill extrusion width = 0.67mm
; solid infill extrusion width = 0.67mm
; top infill extrusion width = 0.67mm

G21 ; set units to millimeters
M107
M104 S200 ; set temperature
G28 ; home all pillars
G29 ; z probe
G1 X0 Y0 Z0 ; plug nozzle to stop ooze
M109 S200 ; wait for temperature to be reached
G90 ; use absolute coordinates
G92 E0
M82 ; use absolute distances for extrusion
G1 F1800.000 E-3.00000
G92 E0
G1 Z0.400 F7800.000
G1 X-48.835 Y0.212 F7800.000
G1 E3.00000 F1800.000
G1 X-48.848 Y-2.970 E3.37790 F1080.000
G1 X-48.848 Y-58.970 E10.02875
G1 X-48.451 Y-61.245 E10.30298
G1 X-47.307 Y-63.250 E10.57720
G1 X-45.551 Y-64.750 E10.85143
G1 X-43.391 Y-65.566 E11.12565
G1 X-42.134 Y-65.684 E11.27562
G1 X44.866 Y-65.684 E21.60819
G1 X47.140 Y-65.287 E21.88241
G1 X49.146 Y-64.143 E22.15664 F1080.000
G1 X50.645 Y-62.387 E22.43086
G1 X51.461 Y-60.227 E22.70509
G1 X51.580 Y-58.999 E22.85161
G1 X51.848 Y2.970 E30.21149
G1 X51.848 Y58.970 E36.86234
G1 X51.451 Y61.245 E37.13656
G1 X50.307 Y63.250 E37.41079
G1 X48.551 Y64.750 E37.68501
G1 X46.391 Y65.566 E37.95924
G1 X45.134 Y65.684 E38.10920
G1 X-41.866 Y65.684 E48.44177
G1 X-44.140 Y65.287 E48.71600
G1 X-46.146 Y64.143 E48.99022
G1 X-47.645 Y62.387 E49.26445
G1 X-48.461 Y60.227 E49.53867
G1 X-48.580 Y58.999 E49.68520
G1 X-48.834 Y0.272 E56.66005
G1 F1800.000 E53.66005
G92 E0
G1 X-41.466 Y3.370 F7800.000
G1 E3.00000 F1800.000
G1 X-22.184 Y3.370 E5.29004 F756.000
G1 X-20.209 Y5.563 E5.64056
G1 X-15.067 Y9.299 E6.39540
G1 X-9.260 Y11.884 E7.15025
G1 X-3.044 Y13.206 E7.90509
G1 X3.312 Y13.206 E8.65995
G1 X9.529 Y11.884 E9.41479
G1 X15.335 Y9.299 E10.16964
G1 X20.477 Y5.563 E10.92448
G1 X22.452 Y3.370 E11.27500
G1 X44.734 Y3.370 E13.92134
G1 X44.734 Y22.106 E16.14651
G1 X43.174 Y23.240 E16.37559
G1 X41.719 Y24.856 E16.63385
G1 X40.631 Y26.739 E16.89213
G1 X39.959 Y28.807 E17.15041
G1 X39.732 Y30.970 E17.40868
G1 X39.959 Y33.133 E17.66695
G1 X40.631 Y35.201 E17.92523
G1 X41.719 Y37.084 E18.18350
G1 X43.174 Y38.700 E18.44177
G1 X44.734 Y39.834 E18.67085
G1 X44.734 Y58.570 E20.89602
G1 X22.452 Y58.570 E23.54236
G1 X20.477 Y56.377 E23.89287
G1 X15.335 Y52.641 E24.64772
G1 X9.529 Y50.056 E25.40257
G1 X3.312 Y48.734 E26.15741
G1 X-3.044 Y48.734 E26.91227
G1 X-9.260 Y50.056 E27.66711
G1 X-15.067 Y52.641 E28.42195
G1 X-20.209 Y56.377 E29.17680
G1 X-22.184 Y58.570 E29.52731
G1 X-41.466 Y58.570 E31.81736
G1 X-41.466 Y3.430 E38.36607
G1 F1800.000 E35.36607
G92 E0
G1 X-22.925 Y3.868 F7800.000
G1 E3.00000 F1800.000
G1 X31.279 Y58.072 E12.10415 F1080.000
G1 X30.262 Y58.072 E12.22494
G1 X-23.942 Y3.868 E21.32909
G1 X-24.959 Y3.868 E21.44987
G1 X29.245 Y58.072 E30.55403
G1 X28.228 Y58.072 E30.67481
G1 X-25.976 Y3.868 E39.77896
G1 X-26.993 Y3.868 E39.89975
G1 X27.211 Y58.072 E49.00390
G1 X26.194 Y58.072 E49.12468
G1 X-28.010 Y3.868 E58.22883
G1 X-29.027 Y3.868 E58.34962
G1 X25.177 Y58.072 E67.45377
G1 X24.160 Y58.072 E67.57456
G1 X-30.044 Y3.868 E76.67871
G1 X-31.061 Y3.868 E76.79949
G1 X23.143 Y58.072 E85.90364
G1 X18.056 Y54.003 F7800.000
G1 X-32.078 Y3.868 E94.32426 F1080.000
G1 X-33.095 Y3.868 E94.44504
G1 X14.970 Y51.934 E102.51813
G1 X13.137 Y51.117 F7800.000
G1 X-34.112 Y3.868 E110.45413 F1080.000
G1 X-35.129 Y3.868 E110.57492
G1 X11.304 Y50.301 E118.37384
G1 X9.534 Y49.548 F7800.000
G1 X-36.146 Y3.868 E126.04625 F1080.000
G1 X-37.163 Y3.868 E126.16703
G1 X8.242 Y49.274 E133.79333
G1 X6.951 Y48.999 E133.95014
G1 X-38.180 Y3.868 E141.53033
G1 X-39.197 Y3.868 E141.65111
G1 X5.659 Y48.724 E149.18519
G1 X4.368 Y48.450 E149.34201
G1 X-40.214 Y3.868 E156.82997
G1 X-40.968 Y4.131 E156.92477
G1 X3.137 Y48.237 E164.33267
G1 X2.120 Y48.237 E164.45345
G1 X-40.968 Y5.148 E171.69054
G1 X-40.968 Y6.165 E171.81132
G1 X1.103 Y48.237 E178.87759
G1 X0.086 Y48.237 E178.99837
G1 X-40.968 Y7.182 E185.89383
G1 X-40.968 Y8.199 E186.01461
G1 X-0.931 Y48.237 E192.73925
G1 X-1.948 Y48.237 E192.86004
G1 X-40.968 Y9.216 E199.41386
G1 X-40.968 Y10.233 E199.53464
G1 X-2.965 Y48.237 E205.91765
G1 X-3.826 Y48.392 E206.02165
G1 X-40.968 Y11.250 E212.25992
G1 X-40.968 Y12.267 E212.38070
G1 X-4.665 Y48.570 E218.47810
G1 X-5.504 Y48.749 E218.57994
G1 X-40.968 Y13.284 E224.53647
G1 X-40.968 Y14.301 E224.65726
G1 X-6.343 Y48.927 E230.47292
G1 X-7.181 Y49.105 E230.57475
G1 X-40.968 Y15.318 E236.24954
G1 X-40.968 Y16.335 E236.37033
G1 X-8.020 Y49.283 E241.90425
G1 X-8.859 Y49.462 E242.00608
G1 X-40.968 Y17.352 E247.39913
G1 X-40.968 Y18.369 E247.51992
G1 X-9.652 Y49.685 E252.77973
G1 X-10.356 Y49.999 E252.87121
G1 X-40.968 Y19.386 E258.01283
G1 X-40.968 Y20.403 E258.13362
G1 X-11.059 Y50.312 E263.15704
G1 X-11.763 Y50.625 E263.24853
G1 X-40.968 Y21.420 E268.15376
G1 X-40.968 Y22.437 E268.27454
G1 X-12.467 Y50.939 E273.06158
G1 X-13.170 Y51.252 E273.15307
G1 X-40.968 Y23.454 E277.82192
G1 X-40.968 Y24.471 E277.94270
G1 X-13.874 Y51.565 E282.49336
G1 X-14.578 Y51.878 E282.58484
G1 X-40.968 Y25.488 E287.01730
G1 X-40.968 Y26.505 E287.13809
G1 X-15.282 Y52.192 E291.45236
G1 X-15.876 Y52.614 E291.53899
G1 X-40.968 Y27.522 E295.75335
G1 X-40.968 Y28.539 E295.87413
G1 X-16.465 Y53.042 E299.98957
G1 X-17.054 Y53.470 E300.07604
G1 X-40.968 Y29.556 E304.09254
G1 X-40.968 Y30.573 E304.21332
G1 X-17.643 Y53.898 E308.13089
G1 X-18.232 Y54.326 E308.21736
G1 X-40.968 Y31.590 E312.03599
G1 X-40.968 Y32.607 E312.15677
G1 X-18.822 Y54.754 E315.87647
G1 X-19.411 Y55.182 E315.96294
G1 X-40.968 Y33.624 E319.58371
G1 X-40.968 Y34.641 E319.70449
G1 X-20.000 Y55.610 E323.22632
G1 X-20.580 Y56.046 E323.31259
G1 X-40.968 Y35.658 E326.73686
G1 X-40.968 Y36.675 E326.85764
G1 X-21.062 Y56.581 E330.20098
G1 X-21.544 Y57.116 E330.28651
G1 X-40.968 Y37.692 E333.54891
G1 X-40.968 Y38.709 E333.66970
G1 X-22.026 Y57.651 E336.85117
G1 X-22.622 Y58.072 E336.93783
G1 X-40.968 Y39.726 E340.01921
G1 X-40.968 Y40.743 E340.14000
G1 X-23.639 Y58.072 E343.05056
G1 X-24.656 Y58.072 E343.17135
G1 X-40.968 Y41.760 E345.91110
G1 X-40.968 Y42.777 E346.03188
G1 X-25.673 Y58.072 E348.60082
G1 X-26.690 Y58.072 E348.72161
G1 X-40.968 Y43.794 E351.11973
G1 X-40.968 Y44.811 E351.24051
G1 X-27.707 Y58.072 E353.46782
G1 X-28.724 Y58.072 E353.58861
G1 X-40.968 Y45.828 E355.64510
G1 X-40.968 Y46.845 E355.76589
G1 X-29.741 Y58.072 E357.65156
G1 X-30.758 Y58.072 E357.77235
G1 X-40.968 Y47.862 E359.48721
G1 X-40.968 Y48.879 E359.60800
G1 X-31.775 Y58.072 E361.15205
G1 X-32.792 Y58.072 E361.27283
G1 X-40.968 Y49.896 E362.64607
G1 X-40.968 Y50.913 E362.76685
G1 X-33.809 Y58.072 E363.96927
G1 X-34.826 Y58.072 E364.09006
G1 X-40.968 Y51.930 E365.12166
G1 X-40.968 Y52.947 E365.24245
G1 X-35.843 Y58.072 E366.10324
G1 X-36.860 Y58.072 E366.22402
G1 X-40.968 Y53.964 E366.91400
G1 X-40.968 Y54.981 E367.03478
G1 X-37.877 Y58.072 E367.55395
G1 X-38.894 Y58.072 E367.67473
G1 X-40.968 Y55.998 E368.02308
G1 X-40.968 Y57.015 E368.14386
G1 X-39.911 Y58.072 E368.32140
G1 X-40.928 Y58.072 E368.44218
G1 X-40.968 Y58.032 E368.44890
G1 X-14.794 Y9.966 F7800.000
G1 X33.313 Y58.072 E376.52887 F1080.000
G1 X32.296 Y58.072 E376.64965
G1 X-17.974 Y7.802 E385.09303
G1 X-12.960 Y10.782 F7800.000
G1 X34.330 Y58.072 E393.03592 F1080.000
G1 X35.347 Y58.072 E393.15670
G1 X-11.127 Y11.598 E400.96250
G1 X-9.330 Y12.378 F7800.000
G1 X36.364 Y58.072 E408.63723 F1080.000
G1 X37.381 Y58.072 E408.75801
G1 X-8.038 Y12.653 E416.38662
G1 X-6.747 Y12.928 E416.54344
G1 X38.398 Y58.072 E424.12594
G1 X39.415 Y58.072 E424.24673
G1 X-5.455 Y13.202 E431.78312
G1 X-4.164 Y13.477 E431.93993
G1 X40.432 Y58.072 E439.43022
G1 X41.449 Y58.072 E439.55100
G1 X-2.920 Y13.704 E447.00317
G1 X-1.903 Y13.704 E447.12395
G1 X42.466 Y58.072 E454.57611
G1 X43.483 Y58.072 E454.69690
G1 X-0.886 Y13.704 E462.14906
G1 X0.131 Y13.704 E462.26984
G1 X44.237 Y57.809 E469.67775
G1 X44.237 Y56.792 E469.79853
G1 X1.148 Y13.704 E477.03562
G1 X2.165 Y13.704 E477.15640
G1 X44.237 Y55.775 E484.22268
G1 X44.237 Y54.758 E484.34346
G1 X3.182 Y13.704 E491.23892
G1 X4.053 Y13.557 E491.34378
G1 X44.237 Y53.741 E498.09300
G1 X44.237 Y52.724 E498.21378
G1 X4.892 Y13.379 E504.82213
G1 X5.730 Y13.201 E504.92397
G1 X44.237 Y51.707 E511.39145
G1 X44.237 Y50.690 E511.51223
G1 X6.569 Y13.022 E517.83884
G1 X7.408 Y12.844 E517.94067
G1 X44.237 Y49.673 E524.12641
G1 X44.237 Y48.656 E524.24719
G1 X8.247 Y12.666 E530.29206
G1 X9.085 Y12.488 E530.39389
G1 X44.237 Y47.639 E536.29789
G1 X44.237 Y46.622 E536.41867
G1 X9.885 Y12.271 E542.18829
G1 X10.589 Y11.957 E542.27977
G1 X44.237 Y45.605 E547.93120
G1 X44.237 Y44.588 E548.05198
G1 X11.293 Y11.644 E553.58522
G1 X11.996 Y11.331 E553.67670
G1 X44.237 Y43.571 E559.09174
G1 X44.237 Y42.554 E559.21252
G1 X12.700 Y11.017 E564.50937
G1 X13.404 Y10.704 E564.60086
G1 X44.237 Y41.537 E569.77951
G1 X44.237 Y40.520 E569.90030
G1 X14.107 Y10.391 E574.96076
G1 X14.811 Y10.077 E575.05224
G1 X40.223 Y35.489 E579.32041
G1 X39.702 Y33.951 F7800.000
G1 X15.515 Y9.764 E583.38286 F1080.000
G1 X16.115 Y9.348 E583.46965
G1 X39.407 Y32.639 E587.38170
G1 X39.288 Y31.503 E587.51741
G1 X16.704 Y8.920 E591.31046
G1 X17.294 Y8.492 E591.39693
G1 X39.283 Y30.481 E595.09027
G1 X39.380 Y29.561 E595.20017
G1 X17.883 Y8.064 E598.81082
G1 X18.472 Y7.636 E598.89730
G1 X39.487 Y28.651 E602.42700
G1 X39.736 Y27.884 E602.52286
G1 X19.061 Y7.208 E605.99552
G1 X19.650 Y6.780 E606.08199
G1 X39.986 Y27.116 E609.49760
G1 X40.265 Y26.378 E609.59128
G1 X20.239 Y6.352 E612.95488
G1 X20.825 Y5.921 E613.04128
G1 X40.637 Y25.734 E616.36894
G1 X41.009 Y25.089 E616.45737
G1 X21.307 Y5.386 E619.76662
G1 X21.789 Y4.851 E619.85214
G1 X41.402 Y24.464 E623.14634
G1 X41.884 Y23.929 E623.23187
G1 X22.270 Y4.316 E626.52607
G1 X22.840 Y3.868 E626.61208
G1 X42.365 Y23.394 E629.89164
G1 X42.849 Y22.861 E629.97715
G1 X23.857 Y3.868 E633.16714
G1 X24.874 Y3.868 E633.28792
G1 X43.438 Y22.433 E636.40603
G1 X44.027 Y22.005 E636.49250
G1 X25.891 Y3.868 E639.53872
G1 X26.908 Y3.868 E639.65950
G1 X44.237 Y21.197 E642.57007
G1 X44.237 Y20.180 E642.69085
G1 X27.925 Y3.868 E645.43061
G1 X28.942 Y3.868 E645.55139
G1 X44.237 Y19.163 E648.12033
G1 X44.237 Y18.146 E648.24111
G1 X29.959 Y3.868 E650.63924
G1 X30.976 Y3.868 E650.76002
G1 X44.237 Y17.129 E652.98733
G1 X44.237 Y16.112 E653.10811
G1 X31.993 Y3.868 E655.16461
G1 X33.010 Y3.868 E655.28539
G1 X44.237 Y15.095 E657.17107
G1 X44.237 Y14.078 E657.29186
G1 X34.027 Y3.868 E659.00672
G1 X35.044 Y3.868 E659.12750
G1 X44.237 Y13.061 E660.67155
G1 X44.237 Y12.044 E660.79234
G1 X36.061 Y3.868 E662.16557
G1 X37.078 Y3.868 E662.28636
G1 X44.237 Y11.027 E663.48878
G1 X44.237 Y10.010 E663.60956
G1 X38.095 Y3.868 E664.64117
G1 X39.112 Y3.868 E664.76195
G1 X44.237 Y8.993 E665.62275
G1 X44.237 Y7.976 E665.74353
G1 X40.129 Y3.868 E666.43351
G1 X41.146 Y3.868 E666.55429
G1 X44.237 Y6.959 E667.07345
G1 X44.237 Y5.942 E667.19424
G1 X42.163 Y3.868 E667.54259
G1 X43.180 Y3.868 E667.66337
G1 X44.237 Y4.925 E667.84090
G1 X44.237 Y3.908 E667.96169
G1 X44.197 Y3.868 E667.96841
G1 F1800.000 E664.96841
G92 E0
G1 X-41.734 Y-58.570 F7800.000
G1 E3.00000 F1800.000
G1 X-22.452 Y-58.570 E5.29004 F756.000
G1 X-20.477 Y-56.377 E5.64056
G1 X-15.335 Y-52.641 E6.39540
G1 X-9.529 Y-50.056 E7.15025
G1 X-3.312 Y-48.734 E7.90509
G1 X3.044 Y-48.734 E8.65995
G1 X9.260 Y-50.056 E9.41479
G1 X15.067 Y-52.641 E10.16964
G1 X20.209 Y-56.377 E10.92448
G1 X22.184 Y-58.570 E11.27500
G1 X44.466 Y-58.570 E13.92134
G1 X44.466 Y-39.834 E16.14651
G1 X42.905 Y-38.700 E16.37559
G1 X41.450 Y-37.084 E16.63385
G1 X40.363 Y-35.201 E16.89213
G1 X39.691 Y-33.133 E17.15041
G1 X39.463 Y-30.970 E17.40868
G1 X39.691 Y-28.807 E17.66695
G1 X40.363 Y-26.739 E17.92523
G1 X41.450 Y-24.856 E18.18350
G1 X42.905 Y-23.240 E18.44177
G1 X44.466 Y-22.106 E18.67085
G1 X44.466 Y-3.370 E20.89602
G1 X22.184 Y-3.370 E23.54236
G1 X20.209 Y-5.563 E23.89287
G1 X15.067 Y-9.299 E24.64772
G1 X9.260 Y-11.884 E25.40257
G1 X3.044 Y-13.206 E26.15741
G1 X-3.312 Y-13.206 E26.91227
G1 X-9.529 Y-11.884 E27.66711
G1 X-15.335 Y-9.299 E28.42195
G1 X-20.477 Y-5.563 E29.17680
G1 X-22.452 Y-3.370 E29.52731
G1 X-41.734 Y-3.370 E31.81736
G1 X-41.734 Y-58.510 E38.36607
G1 X-23.194 Y-58.072 F7800.000
G1 X31.010 Y-3.868 E47.47022 F1080.000
G1 X29.993 Y-3.868 E47.59101
G1 X-24.211 Y-58.072 E56.69516
G1 X-25.228 Y-58.072 E56.81594
G1 X28.976 Y-3.868 E65.92010
G1 X27.959 Y-3.868 E66.04088
G1 X-26.245 Y-58.072 E75.14503
G1 X-27.262 Y-58.072 E75.26582
G1 X26.942 Y-3.868 E84.36997
G1 X25.925 Y-3.868 E84.49075
G1 X-28.279 Y-58.072 E93.59490
G1 X-29.296 Y-58.072 E93.71569
G1 X24.908 Y-3.868 E102.81984
G1 X23.891 Y-3.868 E102.94063
G1 X-30.313 Y-58.072 E112.04478
G1 X-31.330 Y-58.072 E112.16556
G1 X22.874 Y-3.868 E121.26971
G1 X17.788 Y-7.938 F7800.000
G1 X-32.347 Y-58.072 E129.69033 F1080.000
G1 X-33.364 Y-58.072 E129.81111
G1 X14.702 Y-10.007 E137.88420
G1 X12.868 Y-10.823 F7800.000
G1 X-34.381 Y-58.072 E145.82020 F1080.000
G1 X-35.398 Y-58.072 E145.94099
G1 X11.035 Y-11.639 E153.73991
G1 X9.265 Y-12.392 F7800.000
G1 X-36.415 Y-58.072 E161.41232 F1080.000
G1 X-37.432 Y-58.072 E161.53310
G1 X7.974 Y-12.667 E169.15940
G1 X6.682 Y-12.941 E169.31621
G1 X-38.449 Y-58.072 E176.89640
G1 X-39.466 Y-58.072 E177.01718
G1 X5.390 Y-13.216 E184.55126
G1 X4.099 Y-13.490 E184.70808
G1 X-40.483 Y-58.072 E192.19604
G1 X-41.237 Y-57.809 E192.29084
G1 X2.869 Y-13.704 E199.69874
G1 X1.852 Y-13.704 E199.81952
G1 X-41.237 Y-56.792 E207.05661
G1 X-41.237 Y-55.775 E207.17739
G1 X0.835 Y-13.704 E214.24366
G1 X-0.182 Y-13.704 E214.36444
G1 X-41.237 Y-54.758 E221.25990
G1 X-41.237 Y-53.741 E221.38068
G1 X-1.199 Y-13.704 E228.10532
G1 X-2.216 Y-13.704 E228.22610
G1 X-41.237 Y-52.724 E234.77993
G1 X-41.237 Y-51.707 E234.90071
G1 X-3.233 Y-13.704 E241.28372
G1 X-4.095 Y-13.548 E241.38772
G1 X-41.237 Y-50.690 E247.62599
G1 X-41.237 Y-49.673 E247.74677
G1 X-4.934 Y-13.370 E253.84417
G1 X-5.772 Y-13.192 E253.94601
G1 X-41.237 Y-48.656 E259.90254
G1 X-41.237 Y-47.639 E260.02333
G1 X-6.611 Y-13.013 E265.83899
G1 X-7.450 Y-12.835 E265.94082
G1 X-41.237 Y-46.622 E271.61561
G1 X-41.237 Y-45.605 E271.73640
G1 X-8.289 Y-12.657 E277.27032
G1 X-9.127 Y-12.479 E277.37215
G1 X-41.237 Y-44.588 E282.76520
G1 X-41.237 Y-43.571 E282.88599
G1 X-9.921 Y-12.255 E288.14580
G1 X-10.624 Y-11.942 E288.23728
G1 X-41.237 Y-42.554 E293.37890
G1 X-41.237 Y-41.537 E293.49969
G1 X-11.328 Y-11.628 E298.52311
G1 X-12.032 Y-11.315 E298.61460
G1 X-41.237 Y-40.520 E303.51983
G1 X-41.237 Y-39.503 E303.64061
G1 X-12.735 Y-11.002 E308.42765
G1 X-13.439 Y-10.688 E308.51914
G1 X-41.237 Y-38.486 E313.18799
G1 X-41.237 Y-37.469 E313.30877
G1 X-14.143 Y-10.375 E317.85943
G1 X-14.846 Y-10.062 E317.95091
G1 X-41.237 Y-36.452 E322.38337
G1 X-41.237 Y-35.435 E322.50416
G1 X-15.550 Y-9.749 E326.81843
G1 X-16.145 Y-9.326 E326.90506
G1 X-41.237 Y-34.418 E331.11942
G1 X-41.237 Y-33.401 E331.24020
G1 X-16.734 Y-8.898 E335.35564
G1 X-17.323 Y-8.470 E335.44211
G1 X-41.237 Y-32.384 E339.45861
G1 X-41.237 Y-31.367 E339.57939
G1 X-17.912 Y-8.042 E343.49695
G1 X-18.501 Y-7.614 E343.58343
G1 X-41.237 Y-30.350 E347.40206
G1 X-41.237 Y-29.333 E347.52284
G1 X-19.090 Y-7.186 E351.24254
G1 X-19.679 Y-6.759 E351.32901
G1 X-41.237 Y-28.316 E354.94977
G1 X-41.237 Y-27.299 E355.07056
G1 X-20.268 Y-6.331 E358.59239
G1 X-20.849 Y-5.894 E358.67866
G1 X-41.237 Y-26.282 E362.10293
G1 X-41.237 Y-25.265 E362.22371
G1 X-21.331 Y-5.359 E365.56705
G1 X-21.813 Y-4.824 E365.65258
G1 X-41.237 Y-24.248 E368.91498
G1 X-41.237 Y-23.231 E369.03577
G1 X-22.295 Y-4.289 E372.21724
G1 X-22.891 Y-3.868 E372.30390
G1 X-41.237 Y-22.214 E375.38528
G1 X-41.237 Y-21.197 E375.50607
G1 X-23.908 Y-3.868 E378.41663
G1 X-24.925 Y-3.868 E378.53742
G1 X-41.237 Y-20.180 E381.27717
G1 X-41.237 Y-19.163 E381.39795
G1 X-25.942 Y-3.868 E383.96689
G1 X-26.959 Y-3.868 E384.08768
G1 X-41.237 Y-18.146 E386.48580
G1 X-41.237 Y-17.129 E386.60658
G1 X-27.976 Y-3.868 E388.83389
G1 X-28.993 Y-3.868 E388.95468
G1 X-41.237 Y-16.112 E391.01117
G1 X-41.237 Y-15.095 E391.13195
G1 X-30.010 Y-3.868 E393.01763
G1 X-31.027 Y-3.868 E393.13842
G1 X-41.237 Y-14.078 E394.85328
G1 X-41.237 Y-13.061 E394.97407
